public/images/logo-plateforme10.svg

<svg width="136" height="91" viewBox="0 0 136 91" fill="none" xmlns="http://www.w3.org/2000/svg">
<path d="M132.47 29.11C135.92 38.0618 136.451 47.8753 133.987 57.147C131.523 66.4188 126.19 74.6739 118.751 80.7317C111.311 86.7895 102.147 90.3397 92.5686 90.8746C82.9899 91.4096 73.4874 88.9018 65.42 83.71L64.92 83.39L81.2 70.3C85.3675 71.7878 89.8428 72.2012 94.2123 71.5021C98.5819 70.8029 102.705 69.0138 106.2 66.3L106.56 66.01V66.04C110.01 63.267 112.705 59.6694 114.397 55.5796C116.088 51.4898 116.722 47.0396 116.24 42.64L116.18 42.2L132.47 29.11ZM31.9 10.71V89.43H12.81V26.07L31.91 10.72L31.9 10.71ZM118.7 10.17C123.512 14.0862 127.476 18.9415 130.35 24.44L130.67 25.05L61.37 80.77C56.561 76.8574 52.6003 72.0052 49.73 66.51L49.41 65.9L118.71 10.17H118.7ZM61.23 65.12C60.7619 64.8637 60.2319 64.742 59.6988 64.7685C59.1658 64.795 58.6504 64.9686 58.21 65.27L58.05 65.39L55.83 67.15L61.3 73.95L62.81 72.73L60.96 70.41L61.61 69.89C62.16 69.46 62.53 68.84 62.65 68.16L62.68 67.96H62.72C62.7798 67.3924 62.6703 66.8198 62.4051 66.3144C62.1399 65.8089 61.731 65.3933 61.23 65.12ZM62.99 61.37L61.5 62.6L66.95 69.42L71.05 66.12L69.82 64.58L67.22 66.65L62.98 61.37H62.99ZM59.89 66.49C60.14 66.53 60.38 66.66 60.55 66.85L60.63 66.95C60.82 67.15 60.9 67.42 60.87 67.69C60.85 67.89 60.76 68.09 60.61 68.23L60.51 68.32L59.78 68.92L58.48 67.32L59.22 66.72C59.4048 66.5589 59.6452 66.4764 59.89 66.49ZM70.8 55.14L69.18 56.44L71.88 65.41V65.47L73.51 64.19L73.13 62.88L76.15 60.44L77.33 61.08L79 59.72L70.8 55.14ZM61.58 10.04C69.019 4.05907 78.1512 0.570263 87.6831 0.0677341C97.215 -0.434795 106.663 2.07443 114.69 7.24L115.19 7.56L98.9 20.64C94.7322 19.1541 90.2573 18.7416 85.8881 19.4407C81.5189 20.1398 77.3961 21.9278 73.9 24.64L73.54 24.93H73.55C70.1037 27.7053 67.4115 31.3035 65.7216 35.393C64.0316 39.4824 63.3983 43.9314 63.88 48.33L63.93 48.78L47.65 61.86C44.1768 52.8614 43.6544 42.9916 46.1584 33.6767C48.6624 24.3618 54.063 16.0842 61.58 10.04ZM71.46 57.71L74.36 59.24L72.36 60.85L71.46 57.71ZM77.99 49.31L73.72 52.75L74.95 54.28L76.31 53.17L80.58 58.47L82.1 57.24L77.86 51.97L79.23 50.86L77.99 49.31ZM83.59 44.85L79.64 48.02L85.11 54.82L89.06 51.65L87.84 50.12L85.41 52.08L84.51 50.96L86.25 49.57L85 48.04L83.26 49.44L82.37 48.33L84.8 46.37L83.57 44.85H83.59ZM89.36 40.21L85.4 43.39L90.87 50.19L92.4 48.97L90.27 46.33L92.01 44.93L90.78 43.41L89.05 44.81L88.15 43.69L90.55 41.75L89.35 40.21H89.36ZM99.95 37.3C99.1988 36.368 98.1092 35.7712 96.9194 35.6401C95.7296 35.5089 94.5362 35.854 93.6 36.6C92.7402 37.3556 92.1992 38.4092 92.086 39.5482C91.9728 40.6872 92.296 41.8267 92.9902 42.7367C93.6845 43.6468 94.6981 44.2595 95.8265 44.4513C96.9549 44.643 98.1141 44.3996 99.07 43.77L99.26 43.64L99.43 43.49C100.294 42.7197 100.83 41.6472 100.927 40.4937C101.023 39.3402 100.674 38.1935 99.95 37.29V37.3ZM94.82 38.13C95.1813 37.8481 95.6112 37.6676 96.0654 37.607C96.5196 37.5463 96.9818 37.6078 97.4044 37.785C97.827 37.9622 98.1948 38.2487 98.47 38.6152C98.7451 38.9816 98.9177 39.4147 98.97 39.87C99.0119 40.3034 98.9425 40.7404 98.7684 41.1395C98.5943 41.5386 98.3213 41.8867 97.9752 42.151C97.629 42.4152 97.2212 42.5867 96.7903 42.6494C96.3594 42.7121 95.9196 42.6638 95.5126 42.5091C95.1055 42.3545 94.7447 42.0985 94.4641 41.7655C94.1835 41.4325 93.9925 41.0335 93.9092 40.6061C93.8258 40.1787 93.8529 39.7371 93.9878 39.3231C94.1226 38.9091 94.3609 38.5363 94.68 38.24L94.82 38.13ZM102.82 30.45C102.12 30.38 101.42 30.56 100.86 30.97L100.7 31.09L98.52 32.85L103.99 39.65L105.51 38.43L102.81 35.08L106.81 37.38L108.37 36.12L105.18 34.37C105.58 33.42 105.41 32.33 104.75 31.54C104.28 30.93 103.58 30.54 102.82 30.45ZM112.18 21.89L110.59 23.16L112.52 29.5L106.76 26.28L105.17 27.55L109.43 35.28L111.03 33.98L108.52 29.44L113.32 32.12L114.92 30.84L113.32 25.53L117.25 28.98L118.84 27.71L112.18 21.89ZM102.43 32.22H102.56C102.81 32.25 103.05 32.38 103.2 32.58C103.67 33.16 103.53 33.85 102.71 34.66L102.56 34.8L101.12 33.02L101.86 32.43C102.03 32.3 102.23 32.23 102.44 32.22H102.43ZM31.9 1.5V5.25L0 30.9V11.82L12.81 1.51H31.91L31.9 1.5ZM118.56 16.66L114.58 19.86L120.06 26.66L124.03 23.46L122.81 21.94L120.36 23.92L119.44 22.82L121.2 21.41L119.97 19.88L118.23 21.34L117.33 20.22L119.82 18.2L118.56 16.66Z" fill="#041676"/>
</svg>

<?xml version="1.0" encoding="UTF-8"?><svg id="Layer_1" xmlns="http://www.w3.org/2000/svg" width="136" height="91" viewBox="0 0 136 91"><defs><style>.cls-1{fill:#041676;}</style></defs><path class="cls-1" d="m132.47,29.11c3.45,8.952,3.981,18.765,1.517,28.037-2.464,9.272-7.797,17.527-15.236,23.585-7.44,6.058-16.604,9.608-26.182,10.143-9.579.535-19.081-1.973-27.149-7.165l-.5-.32,16.28-13.09c4.168,1.488,8.643,1.901,13.012,1.202,4.37-.699,8.493-2.488,11.988-5.202l.36-.29v.03c3.45-2.773,6.145-6.371,7.837-10.46,1.691-4.09,2.325-8.54,1.843-12.94l-.06-.44,16.29-13.09ZM31.9,10.71v78.72H12.81V26.07l19.1-15.35-.01-.01Zm86.8-.54c4.812,3.916,8.776,8.771,11.65,14.27l.32.61-69.3,55.72c-4.809-3.913-8.77-8.765-11.64-14.26l-.32-.61L118.71,10.17h-.01Zm-57.47,54.95c-.468-.256-.998-.378-1.531-.352-.533.026-1.048.2-1.489.501l-.16.12-2.22,1.76,5.47,6.8,1.51-1.22-1.85-2.32.65-.52c.55-.43.92-1.05,1.04-1.73l.03-.2h.04c.06-.568-.05-1.14-.315-1.646-.265-.506-.674-.921-1.175-1.194Zm1.76-3.75l-1.49,1.23,5.45,6.82,4.1-3.3-1.23-1.54-2.6,2.07-4.24-5.28h.01Zm-3.1,5.12c.25.04.49.17.66.36l.08.1c.19.2.27.47.24.74-.02.2-.11.4-.26.54l-.1.09-.73.6-1.3-1.6.74-.6c.185-.161.425-.244.67-.23Zm10.91-11.35l-1.62,1.3,2.7,8.97v.06l1.63-1.28-.38-1.31,3.02-2.44,1.18.64,1.67-1.36-8.2-4.58Zm-9.22-45.1C69.019,4.059,78.151.57,87.683.068c9.532-.503,18.98,2.007,27.007,7.172l.5.32-16.29,13.08c-4.168-1.486-8.643-1.898-13.012-1.199-4.369.699-8.492,2.487-11.988,5.199l-.36.29h.01c-3.446,2.775-6.139,6.373-7.828,10.463-1.69,4.089-2.323,8.538-1.842,12.937l.05.45-16.28,13.08c-3.473-8.999-3.996-18.868-1.492-28.183,2.504-9.315,7.905-17.593,15.422-23.637Zm9.88,47.67l2.9,1.53-2,1.61-.9-3.14Zm6.53-8.4l-4.27,3.44,1.23,1.53,1.36-1.11,4.27,5.3,1.52-1.23-4.24-5.27,1.37-1.11-1.24-1.55Zm5.6-4.46l-3.95,3.17,5.47,6.8,3.95-3.17-1.22-1.53-2.43,1.96-.9-1.12,1.74-1.39-1.25-1.53-1.74,1.4-.89-1.11,2.43-1.96-1.23-1.52h.02Zm5.77-4.64l-3.96,3.18,5.47,6.8,1.53-1.22-2.13-2.64,1.74-1.4-1.23-1.52-1.73,1.4-.9-1.12,2.4-1.94-1.2-1.54h.01Zm10.59-2.91c-.751-.932-1.841-1.529-3.031-1.66-1.19-.131-2.383.214-3.319.96-.86.756-1.401,1.809-1.514,2.948-.113,1.139.21,2.278.904,3.188.694.91,1.708,1.523,2.836,1.715,1.128.192,2.288-.052,3.243-.681l.19-.13.17-.15c.864-.77,1.4-1.843,1.497-2.996.096-1.153-.253-2.3-.977-3.204v.01Zm-5.13.83c.361-.282.791-.462,1.245-.523.454-.061.916,0,1.339.178.423.177.79.464,1.066.83.275.366.448.799.5,1.255.042.433-.028.87-.202,1.27-.174.399-.447.747-.793,1.012-.346.264-.754.436-1.185.498-.431.063-.871.014-1.278-.14-.407-.155-.768-.411-1.049-.744-.281-.333-.472-.732-.555-1.159-.083-.427-.056-.869.079-1.283.135-.414.373-.787.692-1.083l.14-.11Zm8-7.68c-.7-.07-1.4.11-1.96.52l-.16.12-2.18,1.76,5.47,6.8,1.52-1.22-2.7-3.35,4,2.3,1.56-1.26-3.19-1.75c.4-.95.23-2.04-.43-2.83-.47-.61-1.17-1-1.93-1.09Zm9.36-8.56l-1.59,1.27,1.93,6.34-5.76-3.22-1.59,1.27,4.26,7.73,1.6-1.3-2.51-4.54,4.8,2.68,1.6-1.28-1.6-5.31,3.93,3.45,1.59-1.27-6.66-5.82Zm-9.75,10.33h.13c.25.03.49.16.64.36.47.58.33,1.27-.49,2.08l-.15.14-1.44-1.78.74-.59c.17-.13.37-.2.58-.21h-.01ZM31.9,1.5v3.75L0,30.9V11.82L12.81,1.51h19.1l-.01-.01Zm86.66,15.16l-3.98,3.2,5.48,6.8,3.97-3.2-1.22-1.52-2.45,1.98-.92-1.1,1.76-1.41-1.23-1.53-1.74,1.46-.9-1.12,2.49-2.02-1.26-1.54Z"/></svg>
